X: 6
T: Hector The Hero
R: waltz
M: 3/4
L: 1/8
K: Dmaj
|:D>E|"D"F3E E>D|"G"B3A A>F|"D"A2 A2 D>E|"Bm"F3E E>D|
"G"B3d B/A/F|"A"E2 E2 D>E|"Bm"F3E E>D|"G"B3A A>B|
"D"A2 A2 D>E|"Bm"F2 d>e d>B|"D"A2 D2 D/E/F|"E"E2 E>D D2|1"D"D2 D2 D>E|2"D"D2 D2 D2||
D/F/A| "G"B2 B>d dB | "G"d2 de/d/ c/B/ | "D"A2-A2 A2 | "D"A2 D2 D/F/A |
"Bm"B2 B>A A>B | "Bm"A2 A2 D/E/F | "Em"E2-E2 E2 | "A"E2 D2 D/F/A |
"Bm"B2 B>d d>B | "G"d2 de/d/ c>B |"D"A2 A>D DE|"Bm"F2 d>e d>B|
"D"A2 D2 D/E/F|"A"E2 E>D D2|1"D"D2 D2 D/F/A|2"D"D2 D2 D2||
.


Tune 1292	Setting 1292

